X:1
T:Esurientes implevit bonis
T:Loyset  Compère
T:Source : Trium vocum cantiones---Nürnberg---J.Petreius---1541. Editor : André Vierendeels (08/04/16).
T:Notes : Original clefs : C1, C3, F3 Editorial accidentals above the staff Note values have been halved
T:Esurientes implevit bonis
T:©
T:©
T:©
T:©
C:Loyset  Compère
Z:©
%%score [ 1 [ 2 3 ] ]
L:1/8
Q:1/4=96
M:2/2
K:C
V:1 treble nm="Soprano" snm="S"
V:2 treble-8 nm="Tenor 1" snm="T 1"
V:3 treble-8 nm="Tenor 2" snm="T 2"
V:1
 z8 | z8 | z8 | G4 A2 B2- | B2 AG A2 B2 | G2 c4 B2 | c8- | c8 | z4 c4 | c4 B2 c2- | c2 BA G2 A2- | %11
w: |||E- su- ri-||* * en-|tes|_|im-|ple- vit bo-||
 A2 GF E2 G2- | G2 FE D4 | C4 z2 c2- | c2 B2 c4 | d4 c4 | z2 G4 F2 | G4 A4 | G2 d4 c2 | d4 e4 | %20
w: ||nis, et|_ di- vi-|* tes,|et di-|vi- *|tes, et di-|vi- *|
 d4 c2 BA | B2 c2 A2 GF | G2 A2 F2 ED | CDEF G3 A | B2 c2 d2 e2- | e2 dc B2 d2- | dc c4 B2 | %27
w: tes, et _ _|di- vi- tes _ _|_ _ _ _ _|* * * * * di-|mi- sit in- a-|||
 c4 z2 G2 | A4 F2 G2- | G2 FE D2 C2 | E3 F G3 A | B2 c3 BAG | F3 G AF B2 | A2 G4 F2 | G8 |] %35
w: nes, in-|a- * *||||||nes.|
V:2
 G4 A2 B2- | B2 AG A2 B2 | G2 c4 B2 | c2 e2 f2 g2- | g2 fe f2 g2 | e2 dc d4 | c4 z2 f2 | %7
w: E- su- ri-||en- * *|tes, e- su- ri-||en- * * *|tes im-|
 f4 e2 f2- | f2 ed c3 d | e2 f2 g2 e2- | e2 d2 e2 c2- | c2 B2 c2 e2- | e2 dc B4 | c2 g4 fe | %14
w: ple- vit bo-|||||||
 d4 z2 c2- | c2 B2 c2 A2 | c2 B2 A4 | G2 g4 f2 | g4 e4 | d2 g4 fe | f2 g2 e2 dc | d2 c4 BA | %22
w: nis, bo-|* nis, et di-|vi- * *|tes, et di-|vi- *||tes di- mi- * *||
 B2 A2 z2 A2- | AB c3 def | g2 fe d2 g2- | g2 f2 g2 g2 | f2 e2 d4 | c4 d2 e2 | A2 c2 d2 e2- | %29
w: * sit, di-|* * mi- * * *||* * sit in-|a- * nes,|in- a- *||
 e2 dc B2 c2- | cd e3 f g2- | gfed c4 | d2 f3 e d2- |"^b" dc B2 A4 | G8 |] %35
w: |||||nes.|
V:3
 G4 F2 G2- | G2 FE F2 G2 | E2 DC D4 | C4 z4 | z8 | z4 G4 | A4 A2 F2- | FGAB c2 A2 | F2 A3 B c2 | %9
w: E- su- ri-||en- * * *|tes||im-|ple- vit bo-|||
 A4 G2 A2 | F4 E2 F2 | D4 C4 | z2 C2 G4 | C3 D E2 F2 | G4 A4 | G4 C2 F2- | F2 G2 D4 | E4 D4 | %18
w: ||* nis,|bo- *||nis, et|di- vi tes,|_ et di-|vi- tes,|
 z2 G2 A4 | B2 G2 c4 |"^b" B2 G2 A4 | G2 A2 F4 | E2 F2 D4 | F4 C2 c2 | G2 A2 B2 c2 | A4 G4 | %26
w: et di-|vi- tes di-|mi- * *||sit in- a-|* nes, in-|a- * * *|* nes,|
 z4 G4 | A3 G F2 E2 |"^b" F3 E D2 C2 |"^#" E3 F G2 C2 | C3 D E3 F | G2 A3 GFE | D3 E F2 G2 | %33
w: di-|mi- * * *|* * * sit|in- * * a-||||
 F2 G2 D4 | G8 |] %35
w: |nes.|

